Numix-Circle/48x48/apps/tales-of-majeyal.svg

<?xml version="1.0" encoding="UTF-8" standalone="no"?>
<svg
   xmlns:dc="http://purl.org/dc/elements/1.1/"
   xmlns:cc="http://creativecommons.org/ns#"
   xmlns:rdf="http://www.w3.org/1999/02/22-rdf-syntax-ns#"
   xmlns:svg="http://www.w3.org/2000/svg"
   xmlns="http://www.w3.org/2000/svg"
   xmlns:xlink="http://www.w3.org/1999/xlink"
   xmlns:sodipodi="http://sodipodi.sourceforge.net/DTD/sodipodi-0.dtd"
   xmlns:inkscape="http://www.inkscape.org/namespaces/inkscape"
   viewBox="0 0 48 48"
   id="svg14100"
   version="1.1"
   inkscape:version="0.91 r13725"
   width="100%"
   height="100%"
   sodipodi:docname="tales-of-majeyal.svg">
  <metadata
     id="metadata14159">
    <rdf:RDF>
      <cc:Work
         rdf:about="">
        <dc:format>image/svg+xml</dc:format>
        <dc:type
           rdf:resource="http://purl.org/dc/dcmitype/StillImage" />
        <dc:title />
      </cc:Work>
    </rdf:RDF>
  </metadata>
  <sodipodi:namedview
     pagecolor="#ffffff"
     bordercolor="#666666"
     borderopacity="1"
     objecttolerance="10"
     gridtolerance="10"
     guidetolerance="10"
     inkscape:pageopacity="0"
     inkscape:pageshadow="2"
     inkscape:window-width="1366"
     inkscape:window-height="713"
     id="namedview14157"
     showgrid="false"
     inkscape:zoom="8.5681996"
     inkscape:cx="8.492668"
     inkscape:cy="31.363468"
     inkscape:window-x="0"
     inkscape:window-y="28"
     inkscape:window-maximized="1"
     inkscape:current-layer="svg14100"
     showguides="true"
     inkscape:snap-bbox="true"
     inkscape:snap-midpoints="true"
     inkscape:object-paths="false"
     inkscape:snap-bbox-edge-midpoints="true">
    <inkscape:grid
       type="xygrid"
       id="grid3957"
       empspacing="5"
       visible="true"
       enabled="true"
       snapvisiblegridlinesonly="true" />
  </sodipodi:namedview>
  <defs
     id="defs14102">
    <linearGradient
       id="linearGradient3826">
      <stop
         style="stop-color:#ffb13f;stop-opacity:1;"
         offset="0"
         id="stop3828" />
      <stop
         style="stop-color:#ffb953;stop-opacity:1;"
         offset="1"
         id="stop3830" />
    </linearGradient>
    <linearGradient
       inkscape:collect="always"
       xlink:href="#linearGradient3826"
       id="linearGradient3832"
       x1="1"
       y1="24"
       x2="47"
       y2="24"
       gradientUnits="userSpaceOnUse" />
    <linearGradient
       inkscape:collect="always"
       xlink:href="#linearGradient3826"
       id="linearGradient3834"
       gradientUnits="userSpaceOnUse"
       x1="1"
       y1="24"
       x2="47"
       y2="24" />
  </defs>
  <g
     id="g14119">
    <path
       d="m 36.31 5 c 5.859 4.062 9.688 10.831 9.688 18.5 c 0 12.426 -10.07 22.5 -22.5 22.5 c -7.669 0 -14.438 -3.828 -18.5 -9.688 c 1.037 1.822 2.306 3.499 3.781 4.969 c 4.085 3.712 9.514 5.969 15.469 5.969 c 12.703 0 23 -10.298 23 -23 c 0 -5.954 -2.256 -11.384 -5.969 -15.469 c -1.469 -1.475 -3.147 -2.744 -4.969 -3.781 z m 4.969 3.781 c 3.854 4.113 6.219 9.637 6.219 15.719 c 0 12.703 -10.297 23 -23 23 c -6.081 0 -11.606 -2.364 -15.719 -6.219 c 4.16 4.144 9.883 6.719 16.219 6.719 c 12.703 0 23 -10.298 23 -23 c 0 -6.335 -2.575 -12.06 -6.719 -16.219 z"
       opacity="0.05"
       id="path14121" />
    <path
       d="m 41.28 8.781 c 3.712 4.085 5.969 9.514 5.969 15.469 c 0 12.703 -10.297 23 -23 23 c -5.954 0 -11.384 -2.256 -15.469 -5.969 c 4.113 3.854 9.637 6.219 15.719 6.219 c 12.703 0 23 -10.298 23 -23 c 0 -6.081 -2.364 -11.606 -6.219 -15.719 z"
       opacity="0.1"
       id="path14123" />
    <path
       d="m 31.25 2.375 c 8.615 3.154 14.75 11.417 14.75 21.13 c 0 12.426 -10.07 22.5 -22.5 22.5 c -9.708 0 -17.971 -6.135 -21.12 -14.75 a 23 23 0 0 0 44.875 -7 a 23 23 0 0 0 -16 -21.875 z"
       opacity="0.2"
       id="path14125" />
  </g>
  <g
     id="g14127"
     style="fill:url(#linearGradient3832);fill-opacity:1"
     transform="matrix(0,-1,1,0,0,48)">
    <path
       d="M 24,1 C 36.703,1 47,11.297 47,24 47,36.703 36.703,47 24,47 11.297,47 1,36.703 1,24 1,11.297 11.297,1 24,1 z"
       id="path14129"
       style="fill:url(#linearGradient3834);fill-opacity:1"
       inkscape:connector-curvature="0" />
  </g>
  <g
     id="g14131" />
  <rect
     style="fill:#000000;fill-opacity:1;fill-rule:nonzero;stroke:none;opacity:0.1"
     id="rect3854"
     width="16"
     height="16"
     x="17"
     y="17"
     ry="0.26826632" />
  <rect
     ry="0.26826632"
     y="16"
     x="16"
     height="16"
     width="16"
     id="rect3056"
     style="fill:#691a1b;fill-opacity:1;fill-rule:nonzero;stroke:none" />
  <path
     style="fill:#000000;stroke:none;fill-opacity:1;opacity:0.1"
     d="m 36.4065,11.99975 c -0.542812,0 -0.99866,0.434137 -1.03125,0.96875 L 32.344,16.0935 C 31.630799,15.525992 30.749143,15.052239 29.7815,14.781 l -0.21875,0.78125 c 0.550277,0.154247 1.083234,0.423933 1.5625,0.71875 L 14.469,33.3435 l -0.625,2.78125 0.125,-0.03125 -0.0625,0.0625 2.3125,-0.5625 0.34375,-0.09375 0.03125,0 10.21875,-10.5 6.4375,-6.59375 c 0.425027,0.647272 0.783949,1.348757 0.90625,1.90625 l 0.8125,-0.1875 c -0.224733,-1.024421 -0.912829,-2.095637 -1.59375,-2.9375 L 36.469,14.031 c 0.532278,-0.03502 0.9375,-0.458862 0.9375,-1 0,-0.564003 -0.435997,-1.03125 -1,-1.03125 z"
     id="path3858"
     inkscape:connector-curvature="0" />
  <g
     id="g3204"
     transform="matrix(-0.92620749,0,0,-0.92620749,45.7452,45.916216)">
    <path
       sodipodi:nodetypes="cccccc"
       inkscape:connector-curvature="0"
       id="path4113"
       d="M 35.507778,11.646953 34.836528,14.668126 16.40237,33.573457 14.130564,31.237799 32.56472,12.33247 35.507812,11.646916 15.610585,32.052773 z"
       style="fill:#666666;stroke:none" />
    <path
       inkscape:connector-curvature="0"
       id="path3202"
       d="M 15.539054,32.052773 35.460509,11.632185 32.577022,12.312664 14.403469,30.950224 z"
       style="fill:#999999;stroke:none" />
  </g>
  <rect
     transform="matrix(-0.6973088,-0.71677084,0.69817875,-0.71592349,0,0)"
     ry="0.64575905"
     y="11.112725"
     x="-34.495457"
     height="6.3930559"
     width="1.5089182"
     id="rect4117"
     style="fill:#784421;stroke:none" />
  <path
     style="font-size:medium;font-style:normal;font-variant:normal;font-weight:normal;font-stretch:normal;text-indent:0;text-align:start;text-decoration:none;line-height:normal;letter-spacing:normal;word-spacing:normal;text-transform:none;direction:ltr;block-progression:tb;writing-mode:lr-tb;text-anchor:start;baseline-shift:baseline;color:#000000;fill:#866c2d;fill-opacity:1;stroke:none;stroke-width:0.82994235000000005;marker:none;visibility:visible;display:inline;overflow:visible;enable-background:accumulate;font-family:Sans;-inkscape-font-specification:Sans"
     d="M 28.78125,13.78125 28.5625,14.5625 c 1.071127,0.300246 2.074681,0.950394 2.75,1.625 0.725945,0.790763 1.634867,2.172834 1.84375,3.125 l 0.8125,-0.1875 c -0.276595,-1.260826 -1.263021,-2.629137 -2.0625,-3.5 l 0,-0.03125 c -0.773419,-0.772602 -1.888163,-1.465804 -3.125,-1.8125 z"
     id="path4115"
     inkscape:connector-curvature="0" />
  <g
     id="g14153">
    <path
       d="m 40.03 7.531 c 3.712 4.084 5.969 9.514 5.969 15.469 0 12.703 -10.297 23 -23 23 c -5.954 0 -11.384 -2.256 -15.469 -5.969 4.178 4.291 10.01 6.969 16.469 6.969 c 12.703 0 23 -10.298 23 -23 0 -6.462 -2.677 -12.291 -6.969 -16.469 z"
       opacity="0.1"
       id="path14155" />
  </g>
  <path
     sodipodi:type="arc"
     style="fill:#866c2d;fill-opacity:1;fill-rule:nonzero;stroke:none"
     id="path3848"
     sodipodi:cx="35.392498"
     sodipodi:cy="12.023948"
     sodipodi:rx="1.0212181"
     sodipodi:ry="1.0212181"
     d="m 36.413716,12.023948 a 1.0212181,1.0212181 0 1 1 -2.042436,0 1.0212181,1.0212181 0 1 1 2.042436,0 z" />
</svg>

<svg xmlns="http://www.w3.org/2000/svg" viewBox="0 0 48 48"><defs><linearGradient id="linearGradient3832" x1="1" x2="47" gradientUnits="userSpaceOnUse"><stop stop-color="#ffb13f" stop-opacity="1"/><stop offset="1" stop-color="#ffb953" stop-opacity="1"/></linearGradient></defs><g><path d="m 36.31 5 c 5.859 4.062 9.688 10.831 9.688 18.5 c 0 12.426 -10.07 22.5 -22.5 22.5 c -7.669 0 -14.438 -3.828 -18.5 -9.688 c 1.037 1.822 2.306 3.499 3.781 4.969 c 4.085 3.712 9.514 5.969 15.469 5.969 c 12.703 0 23 -10.298 23 -23 c 0 -5.954 -2.256 -11.384 -5.969 -15.469 c -1.469 -1.475 -3.147 -2.744 -4.969 -3.781 z m 4.969 3.781 c 3.854 4.113 6.219 9.637 6.219 15.719 c 0 12.703 -10.297 23 -23 23 c -6.081 0 -11.606 -2.364 -15.719 -6.219 c 4.16 4.144 9.883 6.719 16.219 6.719 c 12.703 0 23 -10.298 23 -23 c 0 -6.335 -2.575 -12.06 -6.719 -16.219 z" opacity="0.05"/><path d="m 41.28 8.781 c 3.712 4.085 5.969 9.514 5.969 15.469 c 0 12.703 -10.297 23 -23 23 c -5.954 0 -11.384 -2.256 -15.469 -5.969 c 4.113 3.854 9.637 6.219 15.719 6.219 c 12.703 0 23 -10.298 23 -23 c 0 -6.081 -2.364 -11.606 -6.219 -15.719 z" opacity="0.1"/><path d="m 31.25 2.375 c 8.615 3.154 14.75 11.417 14.75 21.13 c 0 12.426 -10.07 22.5 -22.5 22.5 c -9.708 0 -17.971 -6.135 -21.12 -14.75 a 23 23 0 0 0 44.875 -7 a 23 23 0 0 0 -16 -21.875 z" opacity="0.2"/></g><g transform="matrix(0,-1,1,0,0,48)" fill="url(#linearGradient3832)" fill-opacity="1"><path d="M 24,1 C 36.703,1 47,11.297 47,24 47,36.703 36.703,47 24,47 11.297,47 1,36.703 1,24 1,11.297 11.297,1 24,1 z"/></g><rect width="16" height="16" x="17" y="17" opacity="0.1" fill="#000" fill-rule="nonzero" stroke="none" fill-opacity="1" rx="0.268"/><rect y="16" x="16" height="16" width="16" fill="#691a1b" fill-rule="nonzero" stroke="none" fill-opacity="1" rx="0.268"/><path d="m 36.407 12 c -0.543 0 -0.999 0.434 -1.031 0.969 l -3.03 3.125 c -0.713 -0.568 -1.595 -1.041 -2.563 -1.312 l -0.219 0.781 c 0.55 0.154 1.083 0.424 1.563 0.719 l -16.656 17.06 l -0.625 2.781 0.125 -0.031 -0.063 0.063 2.313 -0.563 0.344 -0.094 0.031 0 10.219 -10.5 6.438 -6.594 c 0.425 0.647 0.784 1.349 0.906 1.906 l 0.813 -0.188 c -0.225 -1.024 -0.913 -2.096 -1.594 -2.938 l 3.094 -3.156 c 0.532 -0.035 0.938 -0.459 0.938 -1 0 -0.564 -0.436 -1.031 -1 -1.031 z" opacity="0.1" fill="#000" stroke="none" fill-opacity="1"/><g transform="matrix(-0.92620749,0,0,-0.92620749,45.7452,45.916216)"><path d="m 35.508 11.647 -0.671 3.02 -18.434 18.905 -2.272 -2.336 18.434 -18.905 2.943 -0.686 -19.897 20.406 z" fill="#666" stroke="none"/><path d="m 15.539 32.05 19.921 -20.421 -2.883 0.68 -18.17 18.638 z" fill="#999" stroke="none"/></g><rect transform="matrix(-0.6973088,-0.71677084,0.69817875,-0.71592349,0,0)" y="11.11" x="-34.495" height="6.393" width="1.509" fill="#784421" stroke="none" rx="0.646"/><path d="m 28.781 13.781 -0.219 0.781 c 1.071 0.3 2.075 0.95 2.75 1.625 0.726 0.791 1.635 2.173 1.844 3.125 l 0.813 -0.188 c -0.277 -1.261 -1.263 -2.629 -2.063 -3.5 l 0 -0.031 c -0.773 -0.773 -1.888 -1.466 -3.125 -1.813 z" display="inline" visibility="visible" fill-opacity="1" color="#000" fill="#866c2d" stroke="none"/><g><path d="m 40.03 7.531 c 3.712 4.084 5.969 9.514 5.969 15.469 0 12.703 -10.297 23 -23 23 c -5.954 0 -11.384 -2.256 -15.469 -5.969 4.178 4.291 10.01 6.969 16.469 6.969 c 12.703 0 23 -10.298 23 -23 0 -6.462 -2.677 -12.291 -6.969 -16.469 z" opacity="0.1"/></g><path d="m 36.414 12.02 a 1.021 1.021 0 1 1 -2.042 0 1.021 1.021 0 1 1 2.042 0 z" fill="#866c2d" fill-rule="nonzero" stroke="none" fill-opacity="1"/></svg>
